icons/folder-check.svg

<svg xmlns="http://www.w3.org/2000/svg" viewBox="0 0 24 24" fill="currentColor">
  <path d="M4.20001 3.7124c-.28579 0-.45001.16423-.45001.45v2.05h11.0147l-.7407-1.42438-.0093-.02101C13.746 4.16247 13.0315 3.7124 12.3 3.7124H4.20001Zm-1.95001.45v12.8c0 2.6142 2.13579 4.75 4.75 4.75.41421 0 .75-.3358.75-.75s-.33579-.75-.75-.75c-1.78579 0-3.25-1.4642-3.25-3.25v-9.25H17c1.7858 0 3.25 1.46422 3.25 3.25v6c0 .4142.3358.75.75.75s.75-.3358.75-.75v-6c0-2.61421-2.1358-4.75-4.75-4.75h-.5447l-1.08-2.0771c-.5374-1.18237-1.8148-1.9229-3.0753-1.9229H4.20001c-1.1142 0-1.95001.83578-1.95001 1.95Zm15.2737 13.3368c.2965-.2892.3024-.7641.0131-1.0605-.2892-.2965-.7641-.3024-1.0606-.0131l-3.7196 3.6289L11.6 18.5124c-.2485-.3314-.7186-.3985-1.05-.15-.3314.2485-.3985.7186-.15 1.05l1.532 2.0426.0377.0377c.2224.2225.5065.2947.7303.2947.2224 0 .5041-.0712.7259-.2903l4.0978-3.9979Z"/>
</svg>

<svg width="24" height="24" viewBox="0 0 24 24" fill="none" xmlns="http://www.w3.org/2000/svg">
<path fill-rule="evenodd" clip-rule="evenodd" d="M4.20001 3.7124C3.91422 3.7124 3.75 3.87663 3.75 4.1624V6.2124H14.7647L14.024 4.78802L14.0147 4.76701C13.746 4.16247 13.0315 3.7124 12.3 3.7124H4.20001ZM2.25 4.1624V6.2124V7.7124V16.9624C2.25 19.5766 4.38579 21.7124 7 21.7124C7.41421 21.7124 7.75 21.3766 7.75 20.9624C7.75 20.5482 7.41421 20.2124 7 20.2124C5.21421 20.2124 3.75 18.7482 3.75 16.9624V7.7124H17C18.7858 7.7124 20.25 9.17662 20.25 10.9624V16.9624C20.25 17.3766 20.5858 17.7124 21 17.7124C21.4142 17.7124 21.75 17.3766 21.75 16.9624V10.9624C21.75 8.34819 19.6142 6.2124 17 6.2124H16.4553L15.3753 4.1353C14.8379 2.95293 13.5605 2.2124 12.3 2.2124H4.20001C3.08581 2.2124 2.25 3.04818 2.25 4.1624ZM17.5237 17.4992C17.8202 17.21 17.8261 16.7351 17.5368 16.4387C17.2476 16.1422 16.7727 16.1363 16.4762 16.4256L12.7566 20.0545L11.6 18.5124C11.3515 18.181 10.8814 18.1139 10.55 18.3624C10.2186 18.6109 10.1515 19.081 10.4 19.4124L11.932 21.455L11.9697 21.4927C12.1921 21.7152 12.4762 21.7874 12.7 21.7874C12.9224 21.7874 13.2041 21.7162 13.4259 21.4971L17.5237 17.4992Z" fill="black"/>
</svg>
